X:461
T:West's Hornpipe
B:Kerr's Merry Melodies (c1870s)
Z:Nigel Gatherer
M:4/4
L:1/8
K:D
A2 | d2 FG AFAF | d2 FG AFAF | BAGF  E2 ef | gfed  cABc  | 
     d2 FG AFAF | d2 FG AFAF | BAGF  E2 eg | fdec  d2   :|
de | f2 df dfdf | e2 ce cece | f2 df dfdf  | edcB  A2 Bc |
     dBdB  cAcA | dBdB  cAcA | afge  fdec  | d2 d2 d2  :|]  
<end>
<start>
